X:40
T:Rocks of Bawn                                                                                     
M:3/4                                                                                               
L:1/8                                                                                               
S:Niamh Parsons (Arcady)                                                                            
R:waltz                                                                                             
K:G                                                                                                 
(GA)|B4 G2|(AB/2A/2G2) (GD)|E2 G4-| G4 E2|\                                                         
D4 E2|G4 G2| G6-|G4 d2|                                                                             
e4 e2|d4 e2|(B3c/2B/2 AG)| G4 GB|\                                                                  
d4 dd| (Bc/2B/2A2) (GD)|E6-|E4 d2|                                                                  
e4 e2| d4 e2|(B3c/2B/2 AG)|G4 GB|\                                                                  
d4 d2| (Bc/2B/2A) (GD)| E6-|E4 G2|                                                                  
A4 B2| d4 d2|(GA/2B/2) (AB/2A/2 G2-| G4-G) E|\                                                      
D4-DE|G4-GF|G6|>|
